hosted/assets/icon/widgets/dark-mode/horizontal-slider.svg

<svg width="50" height="50" viewBox="0 0 50 50" fill="none" xmlns="http://www.w3.org/2000/svg">
<path d="M29 6H14.0323H13V39.5802L21.2581 46L29 39.5802V6Z" fill="#4A6BB7"/>
<path d="M15 4C13.355 4 12 5.35503 12 7V24H4V22H2V28H4V26H12V40C11.9999 40.1554 12.0361 40.3087 12.1056 40.4477C12.1751 40.5867 12.276 40.7076 12.4004 40.8008L20.4004 46.8008C20.5734 46.9304 20.7838 47.0005 21 47.0005C21.2162 47.0005 21.4266 46.9304 21.5996 46.8008L29.5996 40.8008C29.724 40.7076 29.8249 40.5867 29.8944 40.4477C29.9639 40.3087 30.0001 40.1554 30 40V26H46V28H48V22H46V24H30V7C30 5.35503 28.645 4 27 4H15ZM15 6H27C27.565 6 28 6.43497 28 7V39.5L21 44.75L14 39.5V7C14 6.43497 14.435 6 15 6Z" fill="white"/>
</svg>

<svg width="50" height="50" fill="none" xmlns="http://www.w3.org/2000/svg"><path d="M29 6H13v33.58L21.258 46 29 39.58V6z" fill="#4A6BB7"/><path d="M15 4c-1.645 0-3 1.355-3 3v17H4v-2H2v6h2v-2h8v14a1 1 0 00.4.8l8 6a1 1 0 001.2 0l8-6a1 1 0 00.4-.8V26h16v2h2v-6h-2v2H30V7c0-1.645-1.355-3-3-3H15zm0 2h12c.565 0 1 .435 1 1v32.5l-7 5.25-7-5.25V7c0-.565.435-1 1-1z" fill="#fff"/></svg>
